X:3
T:Hopser C 7+ (hp02196)
S:Hanny Christen. Bd.II  St. Gallen II, Graubünden, Tessin. S.377 (hp02196) orig. F
S:Bündner Tanzmusik. S.367-383. Zusammenstellung von Hanny Christen. 
O:Switzerland
%%MIDI program 21
R:Hopser
M:2/4
L:1/8
K:C %%MIDI gchordon
g |: "C"g>e Ga | "G7"gf Gg | fB gf | "C"e/2f/2e/2c/2 Gg | e>c Ga | "G7"g^fg2 | "C"ec/2e/2 "G7"g/2f/2d/2B/2 |1 "C"cc cg :|2 
"C"cc c"_Fine"z |: "G7"GB/2d/2 GB/2d/2 | "C"Ge c>e | "G7"fd g>e | "C"ce GG | "G7"GB/2d/2 GB/2d/2 | "C"Ge c>e | "G7"fd g/2f/2d/2B/2 | "C"cc "_>Teil A"cz :| 
W:Parts:ABA
% hp02196  (H 077/TN 29)
% Nov 28, 2016

